X:1
T:Fenelon, LM
T:Fenelon, LM
T:Nathaniel Duren Gould, 1833
T:Public Domain Courtesy of the Cyber Hymnal™
C:Nathaniel Duren Gould, 1833
Z:Public Domain
Z:Courtesy of the Cyber Hymnal™
%%score ( 1 2 ) ( 3 4 )
L:1/8
Q:1/4=97
M:2/4
K:Bb
V:1 treble 
V:2 treble 
V:3 bass 
V:4 bass 
V:1
 [DF]2 | [DF][DF] [DF]F | [EG]2 [EG]2 | !fermata![DF]2 [DB]2 | [Fc][Fc] [Fc][Fd] | [Fc]2 [=EB]2 | %6
 !fermata![FA]2 [DF]2 | [DF][DF] [DF]F | [EG]2 [FA]2 | !fermata![FB]2 [DB]2 | [Fc][Fc] [Fc][Ge] | %11
 [Fd]2 [Ec]2 | [DFB]4 |] %13
V:2
 x2 | x3 F | x4 | x4 | x4 | x4 | x4 | x3 F | x4 | x4 | x4 | x4 | x4 |] %13
V:3
 [B,,B,]2 | [B,,B,][B,,B,] [B,,B,][D,B,] | [E,B,]2 [E,B,]2 | !fermata![B,,B,]2 G,2 | %4
 [F,A,][F,A,] [F,A,][B,,B,] | [C,A,]2 [C,C]2 | !fermata![F,C]2 [B,,B,]2 | %7
 [B,,B,][B,,B,] [B,,B,][D,B,] | [E,B,]2 [F,E]2 | !fermata![B,,D]2 [G,B,]2 | %10
 [F,A,][F,A,] [E,C][C,C] | (DB,) [F,A,]2 | [B,,B,]4 |] %13
V:4
 x2 | x4 | x4 | x2 G,2 | x4 | x4 | x4 | x4 | x4 | x4 | x4 | F,2 x2 | x4 |] %13

